ix/gallery-tick_broken.svg

<svg viewBox="0 0 24 24" fill="none" xmlns="http://www.w3.org/2000/svg" height="1em" width="1em">
  <path d="M9 6C7.9 6 7 6.9 7 8C7 9.1 7.9 10 9 10C10.1 10 11 9.1 11 8" stroke="#292D32" stroke-width="1.5" stroke-linecap="round" stroke-linejoin="round"/>
  <path d="M2 12.97V15C2 20 4 22 9 22H15C20 22 22 20 22 15V10" stroke="#292D32" stroke-width="1.5" stroke-linecap="round" stroke-linejoin="round"/>
  <path d="M13 2H9C4 2 2 4 2 9" stroke="#292D32" stroke-width="1.5" stroke-linecap="round" stroke-linejoin="round"/>
  <path d="M16 4.99005L17.46 6.45005L21.36 2.55005" stroke="#292D32" stroke-width="1.5" stroke-linecap="round" stroke-linejoin="round"/>
  <path d="M2.66992 18.9501L7.59992 15.6401C8.38992 15.1101 9.52992 15.1701 10.2399 15.7801L10.5699 16.0701C11.3499 16.7401 12.6099 16.7401 13.3899 16.0701L17.5499 12.5001C18.3299 11.8301 19.5899 11.8301 20.3699 12.5001L21.9999 13.9001" stroke="#292D32" stroke-width="1.5" stroke-linecap="round" stroke-linejoin="round"/>
</svg>

<svg viewBox="0 0 24 24" fill="none" xmlns="http://www.w3.org/2000/svg" height="1em" width="1em">
  <path d="M9 6c-1.1 0-2 .9-2 2s.9 2 2 2 2-.9 2-2m-9 4.97V15c0 5 2 7 7 7h6c5 0 7-2 7-7v-5m-9-8H9C4 2 2 4 2 9m14-4.01 1.46 1.46 3.9-3.9" stroke="#292D32" stroke-width="1.5" stroke-linecap="round" stroke-linejoin="round"/>
  <path d="m2.67 18.95 4.93-3.31c.79-.53 1.93-.47 2.64.14l.33.29c.78.67 2.04.67 2.82 0l4.16-3.57c.78-.67 2.04-.67 2.82 0L22 13.9" stroke="#292D32" stroke-width="1.5" stroke-linecap="round" stroke-linejoin="round"/>
</svg>
